docs/img/dist/icon-faq-03.svg

<svg width="22" height="22" viewBox="0 0 22 22" fill="none" xmlns="http://www.w3.org/2000/svg">
<path fill-rule="evenodd" clip-rule="evenodd" d="M16.175 10.775C15.081 10.775 14.0318 10.3404 13.2582 9.56682C12.4846 8.79323 12.05 7.74402 12.05 6.65V0.5H0.5V21.5H7.4V20.375H8.975V21.5H21.5V16.1C21.5 15.4007 21.3623 14.7083 21.0947 14.0622C20.8271 13.4162 20.4348 12.8291 19.9403 12.3347C19.4459 11.8402 18.8588 11.4479 18.2128 11.1803C17.5667 10.9127 16.8743 10.775 16.175 10.775ZM1.7 1.775H7.4V1.925C7.4 2.52174 7.16295 3.09403 6.74099 3.51599C6.31903 3.93795 5.74674 4.175 5.15 4.175H1.7V1.7V1.775ZM1.7 5.375H5.15C6.05215 5.37521 6.91849 5.02205 7.56338 4.39118C8.20827 3.76031 8.58039 2.90194 8.6 2V1.775H10.85V5.375H8.75V6.5H10.775V7.25H8.75V8.45H11L11.3 9.125H8.75V10.25H12.125C12.775 10.9573 13.6043 11.4756 14.525 11.75V17H8.525C8.37576 15.5149 7.67831 14.1387 6.56886 13.1402C5.4594 12.1416 4.0176 11.5925 2.525 11.6H1.7V5.375ZM1.7 12.875H2.6C3.74029 12.8788 4.84197 13.2884 5.70775 14.0305C6.57353 14.7726 7.14684 15.7987 7.325 16.925H1.7V12.8V12.875ZM20.3 20.3H18.65V19.1H17.45V20.3H15.875V19.1H14.6V20.3H13.025V19.1H11.825V20.3H10.175V19.175H6.125V20.3H4.625V19.1H3.275V20.3H1.7V18.2H20.3V20.3Z" fill="#202020"/>
<path fill-rule="evenodd" clip-rule="evenodd" d="M20.3 17.0001H15.8V11.9751H16.175C17.269 11.9751 18.3182 12.4097 19.0918 13.1833C19.8654 13.9569 20.3 15.0061 20.3 16.1001V17.0001Z" fill="#D61635"/>
</svg>

<svg width="22" height="22" fill="none" xmlns="http://www.w3.org/2000/svg"><path fill-rule="evenodd" clip-rule="evenodd" d="M16.175 10.775A4.125 4.125 0 0112.05 6.65V.5H.5v21h6.9v-1.125h1.575V21.5H21.5v-5.4a5.325 5.325 0 00-5.325-5.325zm-14.475-9h5.7v.15a2.25 2.25 0 01-2.25 2.25H1.7V1.7v.075zm0 3.6h3.45A3.45 3.45 0 008.6 2v-.225h2.25v3.6h-2.1V6.5h2.025v.75H8.75v1.2H11l.3.675H8.75v1.125h3.375a5.325 5.325 0 002.4 1.5V17h-6a6 6 0 00-6-5.4H1.7V5.375zm0 7.5h.9a4.8 4.8 0 014.725 4.05H1.7V12.8v.075zM20.3 20.3h-1.65v-1.2h-1.2v1.2h-1.575v-1.2H14.6v1.2h-1.575v-1.2h-1.2v1.2h-1.65v-1.125h-4.05V20.3h-1.5v-1.2h-1.35v1.2H1.7v-2.1h18.6v2.1z" fill="#202020"/><path fill-rule="evenodd" clip-rule="evenodd" d="M20.3 17h-4.5v-5.025h.375A4.125 4.125 0 0120.3 16.1v.9z" fill="#D61635"/></svg>
